X: 1
T: Mike Hoban's Air
M: 3/4
L: 1/8
R: waltz
K: Ador
|:A/2B/2 | c2A  B>AG | A>B A/2G/2  E2 A/2B/2 | c2A  BAG | G/2A/2-A2  A2 :|
(3e/2f/2g/2 | a2e  g>ec | d>cd  e2 (3e/2f/2g/2 | a2e  g>ec | d>e d/2c/2  A2B |
c2d B>AG | A>B A/2G/2 E2 A/2B/2 | c2A BAG | G/2A/2-A2 A2 A/2B/2 |
c2A B>AG | A>B A/2G/2 E2 A/2B/2 | c2A BAG | G/2A/2-A2 A2 z|]
